X:1
T:Title
L:1/8
Q:1/4=120
M:none
K:F
V:1 treble nm="Part_1"
V:1
 z CD EFG x2 | A2 A c2 c x2 | E2 E A2 A x2 |S D C2- C3 x2 |: z CD EFG x2 | A2 A c2 c x2 | %6
 E2 E A2 A x2 | D6 x2 | DE FG A x3 | B B2 Bdd x2 | e2 e d2 c x2 | !arpeggio!c6 x2 | %12
 z c=B c/B/_BA x2 | ^G2 G z GG x2 | G G2 !arpeggio!!>!B B x3 | z x7 | !>!CD EF G x3 | %17
 !>!A2 A c2 c x2 | E2 E A2 A x2 | D C2- [CD]2 x3 | !>!CD EF G x3 | A A2 c/!wedge!.A/c/A/ x3 | %22
 z/16[K:treble+8] Tc AGA x63/16 | d6 x2 | d2 z f f x3 | f2 d- dfd x2 | f2 d- dfd x2 | %27
 Td2!>(! c!>)! cdc x2 | D2!<(! C!<)! CDC x2 | TC2 B, B,CB, x2 | CB,DD ^C2 x2 | A,6 x2 | %32
 z C,D, E,/F,/G,A, x2 | C2 B,- B,CB, x2 | C2 B, .MB,CB, x2 | TB,2 A,- A,B,A, x2 | %36
 B,2 A,- A,B,A, x2 | TA,2 G, G,A,G, x2 | A,G,E,-E, F,2 x2 | D,6 x2 | z D,2 E,MD,^C,/D,/ x2 | %41
 F,3 E,F,G, x2 | x8 | x8 | (F,E,)(E, D,)(D,A,,) x2 | C, TB,,2 !arpeggio!!>!G, A,, x3 | %46
 C, B,,2 F, D, x3 | x8 | x8 | D,2 E,2 F,2 x2 | MG,2 F,2 G,2 x2 | B,2 A,2 B,2 x2 | [G,A,]4 x4 | %53
 G,2 (F D)(DB,) x2 | F2 (D B,)(B,G,) x2 | %55

